modules/hawcons-stroke/icons/icon-37-two-fingers-swipe-down.svg

<?xml version="1.0" encoding="UTF-8" standalone="no"?>
<svg width="32px" height="32px" viewBox="0 0 32 32" version="1.1" xmlns="http://www.w3.org/2000/svg" xmlns:xlink="http://www.w3.org/1999/xlink" xmlns:sketch="http://www.bohemiancoding.com/sketch/ns">
    <!-- Generator: Sketch 3.0.3 (7891) - http://www.bohemiancoding.com/sketch -->
    <title>icon 37 two fingers swipe down</title>
    <desc>Created with Sketch.</desc>
    <defs></defs>
    <g id="Page-1" stroke="none" stroke-width="1" fill="none" fill-rule="evenodd" sketch:type="MSPage">
        <g id="icon-37-two-fingers-swipe-down" sketch:type="MSArtboardGroup" fill="#929292">
            <path d="M10,23 L6,23 L6,9.49572805 C6,7.01243417 8.01471863,5 10.5,5 C12.9802243,5 15,7.01280601 15,9.49572805 L15,23 L11,23 L11,29.049999 L14.25,25.799999 L15,26.549999 L10.5,31.049999 L6,26.549999 L6.75,25.799999 L10,29.049999 L10,23 L10,23 Z M21,23 L17,23 L17,6.50502686 C17,4.01356828 19.0147186,2 21.5,2 C23.9802243,2 26,4.01696923 26,6.50502686 L26,23 L22,23 L22,29.049999 L25.25,25.799999 L26,26.549999 L21.5,31.049999 L17,26.549999 L17.75,25.799999 L21,29.049999 L21,23 L21,23 L21,23 Z M10.5,6 C8.56700338,6 7,7.56327939 7,9.49149665 L7,22 L14,22 L14,9.49149665 C14,7.5631963 12.4290634,6 10.5,6 L10.5,6 Z M10.5,7 C9.11928813,7 8,8.12855411 8,9.50977516 L8,13 L13,13 L13,9.50977516 C13,8.12366461 11.8903379,7 10.5,7 L10.5,7 Z M10.5,8 C9.67157288,8 9,8.67854548 9,9.50083274 L9,12 L12,12 L12,9.50083274 C12,8.6719457 11.3342028,8 10.5,8 L10.5,8 Z M8,16 L8,17 L13,17 L13,16 L8,16 L8,16 Z M8,18 L8,19 L13,19 L13,18 L8,18 L8,18 Z M21.5,3 C19.5670034,3 18,4.57101442 18,6.50703494 L18,22 L25,22 L25,6.50703494 C25,4.57015302 23.4290634,3 21.5,3 L21.5,3 Z M21.5,4 C20.1192881,4 19,5.12855411 19,6.50977516 L19,10 L24,10 L24,6.50977516 C24,5.12366461 22.8903379,4 21.5,4 L21.5,4 Z M21.5,5 C20.6715729,5 20,5.67854548 20,6.50083274 L20,9 L23,9 L23,6.50083274 C23,5.6719457 22.3342028,5 21.5,5 L21.5,5 Z M19,13 L19,14 L24,14 L24,13 L19,13 L19,13 Z M19,15 L19,16 L24,16 L24,15 L19,15 L19,15 Z" id="two-fingers-swipe-down" sketch:type="MSShapeGroup"></path>
        </g>
    </g>
</svg>

<svg width="32" height="32" viewBox="0 0 32 32" xmlns="http://www.w3.org/2000/svg"><path d="M10 23H6V9.496a4.501 4.501 0 0 1 9 0V23h-4v6.05l3.25-3.25.75.75-4.5 4.5-4.5-4.5.75-.75L10 29.05V23zm11 0h-4V6.505A4.5 4.5 0 0 1 21.5 2C23.98 2 26 4.017 26 6.505V23h-4v6.05l3.25-3.25.75.75-4.5 4.5-4.5-4.5.75-.75L21 29.05V23zM10.5 6A3.496 3.496 0 0 0 7 9.491V22h7V9.491A3.498 3.498 0 0 0 10.5 6zm0 1C9.12 7 8 8.129 8 9.51V13h5V9.51C13 8.124 11.89 7 10.5 7zm0 1C9.672 8 9 8.679 9 9.5V12h3V9.5c0-.828-.666-1.5-1.5-1.5zM8 16v1h5v-1H8zm0 2v1h5v-1H8zM21.5 3A3.504 3.504 0 0 0 18 6.507V22h7V6.507A3.506 3.506 0 0 0 21.5 3zm0 1C20.12 4 19 5.129 19 6.51V10h5V6.51C24 5.124 22.89 4 21.5 4zm0 1c-.828 0-1.5.679-1.5 1.5V9h3V6.5c0-.828-.666-1.5-1.5-1.5zM19 13v1h5v-1h-5zm0 2v1h5v-1h-5z" fill="#929292" fill-rule="evenodd"/></svg>
